X:151
T:Jenny Lind Polka, The
O:USA?
R:polka 32
F:http://www.abc-notation.com/abcs/je/jenny-lind/jenny-lind-1.abc
M:C|
L:1/4
K:G
d/c/|:Bdce|dbb/^a/b|caa/^g/a|Bgg/f/g|
Bdce|dbb/^a/b|c'aa/c'/b/a/|ggg[1d/c/:|2z||
gee/g/f/e/|dBB/^A/B|cAA/^G/A|edde/f/|
gee/g/f/e/|dBB/^A/B|cAA/c/B/A/|GGG[1e/f/:|2d/c/|]

